svg/Pictogram/pictograms-aem-0101-811-prohibition_of_digging.svg

<?xml version="1.0" encoding="ISO-8859-1" standalone="yes"?>
<svg height="306.397" width="306.397">
  <metadata>
    <rdf:RDF xmlns:cc="http://web.resource.org/cc/" xmlns:dc="http://purl.org/dc/elements/1.1/" xmlns:rdf="http://www.w3.org/1999/02/22-rdf-syntax-ns#">
      <cc:Work rdf:about="">
        <dc:title></dc:title>
        <dc:description></dc:description>
        <dc:subject>
          <rdf:Bag>
            <rdf:li></rdf:li>
          </rdf:Bag>
        </dc:subject>
        <dc:publisher>
          <cc:Agent rdf:about="http://www.unece.org/trans/danger/publi/ghs/pictograms.html">
            <dc:title>Source: UNECE GHS of Classification and Labeling of Chemicals, Source: AEM Pictorial Database, Source: AEM Pictorial Database, Source: AEM Pictorial Database, Source: AEM Pictorial Database</dc:title>
          </cc:Agent>
        </dc:publisher>
        <dc:creator>
          <cc:Agent>
            <dc:title></dc:title>
          </cc:Agent>
        </dc:creator>
        <dc:rights>
          <cc:Agent>
            <dc:title></dc:title>
          </cc:Agent>
        </dc:rights>
        <dc:date></dc:date>
        <dc:format>image/svg+xml</dc:format>
        <dc:type rdf:resource="http://purl.org/dc/dcmitype/StillImage"/>
        <cc:license rdf:resource="http://en.wikipedia.org/wiki/Public_domain"/>
        <dc:language>en</dc:language>
      </cc:Work>
    </rdf:RDF>
  </metadata>
  <defs><marker id="ArrowEnd" markerHeight="3" markerUnits="strokeWidth" markerWidth="4" orient="auto" refX="0" refY="5" viewBox="0 0 10 10"><path d="M 0 0 L 10 5 L 0 10 z"/></marker><marker id="ArrowStart" markerHeight="3" markerUnits="strokeWidth" markerWidth="4" orient="auto" refX="10" refY="5" viewBox="0 0 10 10"><path d="M 10 0 L 0 5 L 10 10 z"/></marker> </defs>
  <g id="g2958" transform="matrix(1.3532768,0,0,1.3532781,-53.207834,-52.192858)">
    <path d="M 155.948 45.0064C 118.436 45.0064 88.0227 75.4134 88.0227 112.928C 88.0227 150.436 118.436 180.854 155.948 180.854C 193.464 180.854 223.862 150.436 223.862 112.928C 223.862 75.4134 193.464 45.0064 155.948 45.0064zM 100.64 112.928C 100.64 100.046 105.054 88.2104 112.436 78.8074L 190.069 156.44C 180.675 163.823 168.827 168.237 155.948 168.237C 125.401 168.237 100.64 143.479 100.64 112.928zM 199.124 147.475L 121.397 69.7494C 130.862 62.1674 142.874 57.6164 155.948 57.6164C 186.495 57.6164 211.253 82.3784 211.253 112.928C 211.253 126.003 206.714 138.014 199.124 147.475" style="stroke:none; fill-rule:evenodd; fill:#d90000"/>
    <path d="M 128.229 143.694L 125.495 138.788L 124.136 138.409L 124.503 142.756L 125.245 142.94L 126.491 146.479L 127.854 146.842L 127.347 143.471L 128.229 143.694" style="stroke:none; fill-rule:evenodd; fill:#000000"/>
    <path d="M 123.757 142.46L 121.018 137.542L 119.655 137.163L 120.03 141.51L 120.78 141.702L 122.015 145.237L 123.382 145.616L 122.878 142.229L 123.757 142.46" style="stroke:none; fill-rule:evenodd; fill:#000000"/>
    <path d="M 119.179 141.088L 116.444 136.171L 115.085 135.792L 115.452 140.139L 116.202 140.331L 117.44 143.866L 118.804 144.233L 118.296 140.858L 119.179 141.088" style="stroke:none; fill-rule:evenodd; fill:#000000"/>
    <path d="M 114.71 139.846L 111.979 134.936L 110.608 134.557L 110.987 138.897L 111.729 139.088L 112.972 142.624L 114.339 142.999L 113.827 139.62L 114.71 139.846" style="stroke:none; fill-rule:evenodd; fill:#000000"/>
    <path d="M 148.331 117.19L 146.464 115.323L 145.85 115.948L 143.249 113.335L 143.737 112.717L 141.753 110.733L 141.136 111.233L 138.647 108.62L 139.143 108.124L 137.905 106.76L 137.284 107.385L 136.417 106.51C 136.417 106.51 128.808 108.76 126.983 113.088C 125.163 117.417 124.007 125.319 125.128 131.46C 126.241 137.6 126.741 137.944 126.741 137.944L 148.331 117.19" style="stroke:none; fill-rule:evenodd; fill:#000000"/>
    <path d="M 123.429 137.128C 123.429 137.128 122.929 136.788 121.796 130.737C 120.671 124.698 121.831 116.87 123.667 112.522C 124.401 110.788 126.237 109.768 127.979 108.643L 129.546 108.729C 127.796 109.85 126.136 111.296 125.401 113.034C 123.55 117.385 122.39 125.233 123.526 131.292C 124.655 137.358 125.163 137.69 125.163 137.69L 123.429 137.128" style="stroke:none; fill-rule:evenodd; fill:#000000"/>
    <path d="M 119.003 135.944C 119.003 135.944 118.511 135.616 117.729 129.764C 116.94 123.913 118.6 116.358 120.737 112.171C 121.589 110.514 123.526 109.546 125.37 108.479L 126.972 108.577C 125.112 109.643 123.335 111.026 122.479 112.686C 120.319 116.885 118.663 124.456 119.444 130.319C 120.229 136.182 120.725 136.518 120.725 136.518L 119.003 135.944" style="stroke:none; fill-rule:evenodd; fill:#000000"/>
    <path d="M 114.6 134.6C 114.6 134.6 114.108 134.272 113.507 128.616C 112.909 122.964 114.835 115.71 117.159 111.717C 118.081 110.131 120.081 109.241 122.003 108.253L 123.62 108.393C 121.698 109.381 119.831 110.674 118.901 112.264C 116.581 116.26 114.64 123.522 115.229 129.202C 115.839 134.874 116.335 135.206 116.335 135.206L 114.6 134.6" style="stroke:none; fill-rule:evenodd; fill:#000000"/>
    <path d="M 110.511 133.51C 110.511 133.51 110.026 133.198 109.62 127.674C 109.21 122.174 111.409 115.143 113.897 111.284C 114.886 109.756 116.94 108.905 118.929 107.964L 120.558 108.12C 118.581 109.057 116.643 110.296 115.647 111.831C 113.155 115.698 110.932 122.741 111.35 128.256C 111.753 133.796 112.245 134.116 112.245 134.116L 110.511 133.51" style="stroke:none; fill-rule:evenodd; fill:#000000"/>
    <path d="M 148.948 118.928L 128.1 140.764L 129.597 143.995L 130.339 143.995L 131.698 148.088L 133.561 148.585L 132.936 144.612L 150.436 121.526L 148.948 118.928" style="stroke:none; fill-rule:evenodd; fill:#000000"/>
    <path d="M 152.206 136.663C 152.206 141.042 154.179 144.588 156.62 144.588C 159.058 144.588 161.034 141.042 161.034 136.663L 161.034 135.174C 159.507 134.792 158.374 133.421 158.374 131.768L 158.362 127.342L 154.679 123.663L 154.679 131.792C 154.679 133.37 153.636 134.69 152.206 135.143L 152.206 136.663" style="stroke:none; fill-rule:evenodd; fill:#000000"/>
    <path d="M 166.452 135.311L 161.901 135.292C 161.85 135.292 161.815 135.288 161.78 135.284L 161.784 135.999C 161.784 141.112 159.472 145.256 156.62 145.256C 153.768 145.256 151.46 141.112 151.46 135.999L 151.46 135.288C 151.354 135.292 151.261 135.323 151.155 135.323L 143.374 135.323C 143.374 135.323 143.374 143.128 143.374 143.249C 143.374 158.991 156.893 164.221 156.893 164.221C 156.893 164.221 169.929 158.1 169.929 143.128L 169.929 138.788L 166.452 135.311" style="stroke:none; fill-rule:evenodd; fill:#000000"/>
    <path d="M 206.315 96.7064L 182.831 87.6434L 182.581 88.0224L 178.858 86.6554L 178.983 85.9134L 181.964 86.2804L 181.964 86.6554L 186.061 87.3974L 186.932 86.9054L 188.546 87.3974L 189.538 86.9054L 197.604 90.0034L 197.85 89.5064L 204.569 92.0534C 204.222 91.2724 203.866 90.4914 203.483 89.7254L 198.343 87.7724L 198.597 87.2684L 185.19 82.1864L 184.448 81.3154L 183.327 81.1904C 182.929 80.6284 180.6 80.3274 180.6 80.3274L 179.042 79.2144L 176.061 78.3934L 175.136 79.3114L 172.913 79.2454C 172.413 78.5534 171.6 78.0924 170.679 78.0924C 169.815 78.0924 169.061 78.4954 168.554 79.1124L 168.534 79.1124L 158.511 89.0854L 158.511 74.4604C 158.87 72.9324 159.69 71.4954 162.065 70.0884C 164.554 68.6044 164.421 66.1784 164.421 66.1784L 164.421 61.8314L 148.765 61.8314L 148.765 66.1784C 148.765 66.1784 148.628 68.6044 151.116 70.0884C 153.511 71.4994 154.319 72.9564 154.679 74.4954L 154.679 92.8854L 151.397 96.1594C 154.757 99.5224 158.245 103.006 161.737 106.503L 174.565 93.9754L 208.839 111.307C 208.682 106.225 207.815 101.327 206.315 96.7064zM 153.175 68.7844C 150.546 67.6944 150.929 65.6784 150.929 65.6784L 162.257 65.6784C 162.257 65.6784 162.64 67.6944 160.015 68.7844C 157.397 69.8784 156.62 73.1244 156.62 73.1244L 156.569 73.1244C 156.569 73.1244 155.792 69.8784 153.175 68.7844" style="stroke:none; fill-rule:evenodd; fill:#000000"/>
    <path d="M 127.452 213.8C 127.452 199.846 116.136 188.538 102.191 188.538C 90.6516 188.538 80.8821 196.272 77.8392 206.835C 77.8392 206.835 75.9212 212.573 68.6477 212.573C 67.3157 212.573 66.2337 213.655 66.2337 214.991C 66.2337 216.331 67.3157 217.413 68.6477 217.413L 127.55 217.413L 127.452 213.8zM 76.6907 213.792C 79.2298 212.038 80.7181 209.691 81.2962 207.987C 81.3118 207.933 81.3274 207.886 81.3431 207.835C 84.0032 198.608 92.5774 192.163 102.191 192.163C 114.12 192.163 123.827 201.866 123.827 213.792C 118.249 213.792 87.8548 213.792 76.6907 213.792" style="stroke:none; fill-rule:evenodd; fill:#000000"/>
    <path d="M 107.163 226.909C 106.702 226.702 102.488 225.976 98.7337 229.444C 94.9759 232.909 95.7884 235.651 95.7884 235.651C 97.0735 239.644 100.429 240.706 100.429 240.706C 101.394 239.53 101.734 238.96 101.734 238.96L 103.108 240.214L 102.077 241.437C 102.077 241.437 94.3626 252.8 79.5579 255.741L 79.5813 253.827C 80.4759 253.624 81.3509 253.39 82.2024 253.136C 81.3079 249.675 79.3118 247.394 77.304 247.241C 75.2884 247.085 70.9524 247.894 68.7688 251.171C 66.5813 254.452 65.5852 256.073 69.6985 260.433C 73.8118 264.792 76.0071 264.417 76.0071 264.417C 90.9329 262.456 101.05 254.636 106.44 248.483C 111.835 242.327 112.702 239.425 112.702 239.425C 112.612 229.714 107.163 226.909 107.163 226.909" style="stroke:none; fill-rule:evenodd; fill:#000000"/>
    <path d="M 80.7376 219.112L 74.429 238.148C 74.429 238.148 73.722 240.058 75.386 240.464L 80.847 241.831L 81.1087 247.663C 82.2532 248.898 83.1712 250.651 83.7181 252.745C 83.7181 252.745 83.761 252.917 83.7806 252.972C 90.9954 250.46 96.011 245.995 98.6399 243.159C 99.1907 242.46 99.4915 241.972 99.4915 241.972C 98.2063 241.257 95.3392 239.316 94.3079 236.128L 94.3392 236.206C 93.972 235.191 93.7376 231.937 97.679 228.304C 102.093 224.226 107.011 225.144 107.8 225.491L 107.835 225.511L 107.874 225.526C 108.132 225.659 114.159 228.882 114.249 239.417L 114.249 239.648L 114.19 239.878C 114.089 240.206 113.061 243.273 107.608 249.503C 105.421 251.999 100.843 256.554 93.8626 260.308C 96.886 260.437 106.702 260.167 113.788 251.843C 125.522 240.116 124.788 219.108 124.788 219.108L 80.7376 219.108L 80.7376 219.112zM 87.8938 226.046C 86.5188 226.046 85.3977 224.937 85.3977 223.562C 85.3977 222.194 86.5188 221.085 87.8938 221.085C 89.2649 221.085 90.3743 222.194 90.3743 223.562C 90.3743 224.937 89.2649 226.046 87.8938 226.046" style="stroke:none; fill-rule:evenodd; fill:#000000"/>
    <path d="M 155.749 224.659C 153.808 223.206 152.374 221.409 151.456 219.269C 150.534 217.132 150.073 214.542 150.073 211.511C 150.073 205.718 151.624 201.147 154.733 197.807C 157.831 194.464 162.1 192.792 167.538 192.792C 172.952 192.792 177.214 194.464 180.319 197.807C 183.421 201.147 184.975 205.718 184.975 211.511C 184.975 214.542 184.511 217.132 183.593 219.269C 182.667 221.409 181.249 223.206 179.327 224.659C 181.702 226.058 183.464 227.983 184.616 230.433C 185.776 232.882 186.354 235.921 186.354 239.542C 186.354 246.112 184.714 251.191 181.44 254.784C 178.159 258.378 173.522 260.171 167.538 260.171C 161.534 260.171 156.886 258.378 153.608 254.784C 150.331 251.191 148.69 246.112 148.69 239.542C 148.69 235.921 149.272 232.882 150.429 230.433C 151.577 227.983 153.354 226.058 155.749 224.659zM 161.518 238.405C 161.518 240.894 162.042 242.827 163.093 244.202C 164.14 245.581 165.62 246.273 167.538 246.273C 169.452 246.273 170.932 245.581 171.975 244.202C 173.011 242.827 173.53 240.894 173.53 238.405C 173.53 235.855 172.999 233.855 171.94 232.405C 170.878 230.948 169.413 230.226 167.538 230.226C 165.64 230.226 164.167 230.948 163.108 232.405C 162.046 233.855 161.518 235.855 161.518 238.405zM 161.921 212.694C 161.921 214.937 162.413 216.671 163.39 217.913C 164.37 219.148 165.749 219.769 167.53 219.769C 169.284 219.769 170.643 219.148 171.6 217.913C 172.561 216.671 173.042 214.937 173.042 212.694C 173.042 210.757 172.526 209.155 171.495 207.89C 170.464 206.616 169.143 205.983 167.53 205.983C 165.893 205.983 164.55 206.616 163.495 207.89C 162.448 209.155 161.921 210.757 161.921 212.694" style="stroke:none; fill-rule:evenodd; fill:#000000"/>
    <path d="M 201.526 258.507L 201.526 221.194L 191.706 221.194L 191.706 207.882C 195.784 207.765 198.792 206.683 200.725 204.636C 202.667 202.592 203.901 199.194 204.429 194.452L 214.35 194.452L 214.35 258.507L 201.526 258.507" style="stroke:none; fill-rule:evenodd; fill:#000000"/>
    <path d="M 232.827 258.507L 232.827 221.194L 223.003 221.194L 223.003 207.882C 227.081 207.765 230.089 206.683 232.026 204.636C 233.968 202.592 235.198 199.194 235.729 194.452L 245.651 194.452L 245.651 258.507L 232.827 258.507" style="stroke:none; fill-rule:evenodd; fill:#000000"/>
    <path d="M 29.6204 267.776L 2.62042 267.776" style="stroke:#000000; stroke-width:0.5; fill:none"/>
    <path d="M 38.6204 276.776L 38.6204 303.776" style="stroke:#000000; stroke-width:0.5; fill:none"/>
    <path d="M 29.6204 38.6204L 2.62042 38.6204" style="stroke:#000000; stroke-width:0.5; fill:none"/>
    <path d="M 38.6204 29.6204L 38.6204 2.62042" style="stroke:#000000; stroke-width:0.5; fill:none"/>
    <path d="M 276.776 38.6204L 303.776 38.6204" style="stroke:#000000; stroke-width:0.5; fill:none"/>
    <path d="M 267.776 29.6204L 267.776 2.62042" style="stroke:#000000; stroke-width:0.5; fill:none"/>
    <path d="M 276.776 267.776L 303.776 267.776" style="stroke:#000000; stroke-width:0.5; fill:none"/>
    <path d="M 267.776 276.776L 267.776 303.776" style="stroke:#000000; stroke-width:0.5; fill:none"/>
  </g>
</svg>

<svg viewBox="0 0 306.4 306.4"><g transform="matrix(1.35328 0 0 1.35328-53.21-52.19)" fill-rule="evenodd"><path d="m155.95 45.01c-37.512 0-67.925 30.407-67.925 67.922 0 37.508 30.413 67.926 67.925 67.926 37.516 0 67.914-30.418 67.914-67.926 0-37.515-30.398-67.922-67.914-67.922m-55.31 67.922c0-12.882 4.414-24.718 11.796-34.12l77.63 77.63c-9.394 7.383-21.242 11.797-34.12 11.797-30.547 0-55.31-24.758-55.31-55.31m98.48 34.547l-77.73-77.73c9.465-7.582 21.477-12.133 34.551-12.133 30.547 0 55.3 24.762 55.3 55.31 0 13.08-4.539 25.09-12.13 34.547" fill="#d90000"/><path d="m128.23 143.69l-2.734-4.906-1.359-.379.367 4.347.742.184 1.246 3.539 1.363.363-.507-3.371.882.223"/><path d="m123.76 142.46l-2.739-4.918-1.363-.379.375 4.347.75.192 1.235 3.535 1.367.379-.504-3.387.879.231"/><path d="m119.18 141.09l-2.735-4.917-1.359-.379.367 4.347.75.192 1.238 3.535 1.364.367-.508-3.375.883.23"/><path d="m114.71 139.85l-2.731-4.91-1.371-.379.379 4.34.742.191 1.243 3.536 1.367.375-.512-3.379.883.226"/><path d="m148.33 117.19l-1.867-1.867-.614.625-2.601-2.613.488-.618-1.984-1.984-.617.5-2.489-2.613.496-.496-1.238-1.364-.621.625-.867-.875c0 0-7.609 2.25-9.434 6.578-1.82 4.329-2.976 12.231-1.855 18.372 1.113 6.14 1.613 6.484 1.613 6.484l21.59-20.754"/><path d="m123.43 137.13c0 0-.5-.34-1.633-6.391-1.125-6.04.035-13.867 1.871-18.215.734-1.734 2.57-2.754 4.312-3.879l1.567.086c-1.75 1.121-3.41 2.567-4.145 4.305-1.851 4.351-3.01 12.199-1.875 18.258 1.129 6.07 1.637 6.398 1.637 6.398l-1.734-.562"/><path d="m119 135.94c0 0-.492-.328-1.274-6.18-.789-5.851.871-13.406 3.01-17.593.852-1.657 2.789-2.625 4.633-3.692l1.602.098c-1.86 1.066-3.637 2.449-4.493 4.109-2.16 4.199-3.816 11.77-3.035 17.633.785 5.863 1.281 6.199 1.281 6.199l-1.722-.574"/><path d="m114.6 134.6c0 0-.492-.328-1.093-5.984-.598-5.652 1.328-12.906 3.652-16.899.922-1.586 2.922-2.476 4.844-3.464l1.617.14c-1.922.988-3.789 2.281-4.719 3.871-2.32 3.996-4.261 11.258-3.672 16.938.61 5.672 1.106 6 1.106 6l-1.735-.606"/><path d="m110.51 133.51c0 0-.485-.312-.891-5.836-.41-5.5 1.789-12.531 4.277-16.39.989-1.528 3.043-2.379 5.03-3.32l1.629.156c-1.977.937-3.915 2.176-4.911 3.711-2.492 3.867-4.715 10.91-4.297 16.425.403 5.54.895 5.86.895 5.86l-1.734-.606"/><path d="m148.95 118.93l-20.848 21.836 1.497 3.231h.742l1.359 4.093 1.863.497-.625-3.973 17.5-23.09-1.488-2.598"/><path d="m152.21 136.66c0 4.379 1.973 7.925 4.414 7.925 2.438 0 4.414-3.546 4.414-7.925v-1.489c-1.527-.382-2.66-1.753-2.66-3.406l-.012-4.426-3.683-3.679v8.129c0 1.578-1.043 2.898-2.473 3.351v1.52"/><path d="m166.45 135.31l-4.551-.019c-.051 0-.086-.004-.121-.008l.004.715c0 5.113-2.312 9.257-5.164 9.257-2.852 0-5.16-4.144-5.16-9.257v-.711c-.106.004-.199.035-.305.035h-7.781c0 0 0 7.805 0 7.926 0 15.742 13.519 20.972 13.519 20.972 0 0 13.04-6.121 13.04-21.09v-4.34l-3.477-3.477"/><path d="m206.31 96.71l-23.484-9.06-.25.379-3.723-1.367.125-.742 2.981.367v.375l4.097.742.871-.492 1.614.492.992-.492 8.07 3.098.246-.497 6.719 2.547c-.347-.781-.703-1.562-1.086-2.328l-5.14-1.953.254-.504-13.407-5.082-.742-.871-1.121-.125c-.398-.562-2.727-.863-2.727-.863l-1.558-1.113-2.981-.821-.925.918-2.223-.066c-.5-.692-1.313-1.153-2.234-1.153-.864 0-1.618.403-2.125 1.02h-.02l-10.02 9.973v-14.625c.359-1.528 1.179-2.965 3.554-4.372 2.489-1.484 2.356-3.91 2.356-3.91v-4.347h-15.656v4.347c0 0-.137 2.426 2.351 3.91 2.395 1.411 3.203 2.868 3.563 4.407v18.39l-3.282 3.274c3.36 3.363 6.848 6.847 10.34 10.344l12.828-12.528 34.27 17.332c-.157-5.082-1.024-9.98-2.524-14.601m-53.14-27.922c-2.629-1.09-2.246-3.106-2.246-3.106h11.328c0 0 .383 2.02-2.242 3.106-2.618 1.094-3.395 4.34-3.395 4.34h-.051c0 0-.777-3.246-3.394-4.34"/><path d="m127.45 213.8c0-13.954-11.316-25.26-25.26-25.26-11.539 0-21.309 7.734-24.352 18.297 0 0-1.918 5.738-9.192 5.738-1.332 0-2.414 1.082-2.414 2.418 0 1.34 1.082 2.422 2.414 2.422h58.902l-.098-3.613m-50.761-.008c2.539-1.754 4.03-4.101 4.605-5.805.016-.054.031-.101.047-.152 2.66-9.227 11.234-15.672 20.848-15.672 11.929 0 21.636 9.703 21.636 21.629-5.578 0-35.972 0-47.14 0"/><path d="m107.16 226.91c-.461-.207-4.675-.933-8.429 2.535-3.758 3.465-2.945 6.207-2.945 6.207 1.285 3.993 4.641 5.05 4.641 5.05.965-1.176 1.305-1.746 1.305-1.746l1.374 1.254-1.031 1.223c0 0-7.714 11.363-22.519 14.304l.023-1.914c.895-.203 1.77-.437 2.621-.691-.894-3.461-2.891-5.742-4.898-5.895-2.02-.156-6.352.653-8.535 3.93-2.188 3.281-3.184 4.902.93 9.262 4.113 4.359 6.309 3.984 6.309 3.984 14.926-1.961 25.04-9.781 30.433-15.934 5.395-6.156 6.262-9.06 6.262-9.06-.09-9.711-5.539-12.516-5.539-12.516"/><path d="m80.74 219.11l-6.309 19.04c0 0-.707 1.91.957 2.316l5.461 1.367.262 5.832c1.145 1.235 2.063 2.988 2.609 5.082 0 0 .043.172.063.227 7.215-2.512 12.23-6.977 14.859-9.813.551-.699.852-1.187.852-1.187-1.285-.715-4.152-2.656-5.184-5.844l.031.078c-.367-1.015-.602-4.269 3.34-7.902 4.414-4.078 9.332-3.16 10.121-2.813l.035.02.039.015c.258.133 6.285 3.356 6.375 13.891v.231l-.059.23c-.101.328-1.129 3.395-6.582 9.625-2.187 2.496-6.765 7.05-13.745 10.805 3.02.129 12.839-.141 19.925-8.465 11.734-11.727 11-32.735 11-32.735h-44.05v.004m7.156 6.934c-1.375 0-2.496-1.109-2.496-2.484 0-1.368 1.121-2.477 2.496-2.477 1.371 0 2.481 1.109 2.481 2.477 0 1.375-1.109 2.484-2.481 2.484"/><path d="m155.75 224.66c-1.941-1.453-3.375-3.25-4.293-5.39-.922-2.137-1.383-4.727-1.383-7.758 0-5.793 1.551-10.364 4.66-13.704 3.098-3.343 7.367-5.01 12.805-5.01 5.414 0 9.676 1.672 12.781 5.01 3.102 3.34 4.656 7.911 4.656 13.704 0 3.03-.464 5.621-1.382 7.758-.926 2.14-2.344 3.937-4.266 5.39 2.375 1.399 4.137 3.324 5.289 5.774 1.16 2.449 1.738 5.488 1.738 9.109 0 6.57-1.64 11.649-4.914 15.242-3.281 3.594-7.918 5.387-13.902 5.387-6 0-10.652-1.793-13.93-5.387-3.277-3.593-4.918-8.672-4.918-15.242 0-3.621.582-6.66 1.739-9.109 1.148-2.45 2.925-4.375 5.32-5.774m5.769 13.746c0 2.489.524 4.422 1.575 5.797 1.047 1.379 2.527 2.071 4.445 2.071 1.914 0 3.394-.692 4.437-2.071 1.036-1.375 1.555-3.308 1.555-5.797 0-2.55-.531-4.55-1.59-6-1.062-1.457-2.527-2.179-4.402-2.179-1.898 0-3.371.722-4.43 2.179-1.062 1.45-1.59 3.45-1.59 6m.403-25.711c0 2.243.492 3.977 1.469 5.219.98 1.235 2.359 1.856 4.14 1.856 1.754 0 3.113-.621 4.07-1.856.961-1.242 1.442-2.976 1.442-5.219 0-1.937-.516-3.539-1.547-4.804-1.031-1.274-2.352-1.907-3.965-1.907-1.637 0-2.98.633-4.03 1.907-1.047 1.265-1.574 2.867-1.574 4.804"/><path d="m201.53 258.51v-37.31h-9.82v-13.312c4.078-.117 7.086-1.199 9.02-3.246 1.942-2.044 3.176-5.442 3.704-10.184h9.921v64.06h-12.824"/><path d="m232.83 258.51v-37.31h-9.824v-13.312c4.078-.117 7.086-1.199 9.02-3.246 1.942-2.044 3.172-5.442 3.703-10.184h9.922v64.06h-12.824"/></g></svg>
